!!!COM: Power, Leonel
!!!OTL: Ibo michi ad montem
!!!ONM: No. 24
!!!YOR: from: "Complete Works" edited by Charles Hamm, Vol. 1, Motets, pp.??
!!!YOO: American Institute of Musicology
!!!YOY: 1969
**kern	**kern	**kern
*ICvox	*ICvox	*ICvox
! tenor	! contratenor	! discantus
*M3/4	*M3/4	*M3/4
=1	=1	=1
*>A	*>A	*>A
!! Section 'A'; (O) mensuration.
[2.F	2.c	[2.f
=2	=2	=2
2.F]	4d	2f]
.	4c	.
.	4f	4a
=3	=3	=3
2.c	2.e	4a
.	.	4g
.	.	4cc
=4	=4	=4
4d	4f	8b
.	.	2a
4c	8e	.
.	8c	.
4f	4d	.
.	.	8f
=5	=5	=5
8f	8A	8a
8e	2c	4g
4c	.	.
.	.	8e
4d	.	8f
.	8Bnx	8g
=6	=6	=6
2.c	[2.c	2.e
=7	=7	=7
2g	2.c]	2e
4e	.	4r
=8	=8	=8
2d	2B-	2f
4c	8A	4a
.	16G	.
.	16A	.
=9	=9	=9
4f	4F	4a
4e	4G	8.g
.	.	16e
8d	8F	8f
[8c	[8A	8e
=10	=10	=10
8c]	8A]	4c
8A	8c	.
4G	8d	8r
.	8e	8g
4F	4f	8a
.	.	8cc
=11	=11	=11
4c	4e	8cc
.	.	8.a
8d	8d	.
.	.	16g
8B-	4d	4g
4A	.	.
.	8c	8f#x
=12	=12	=12
2.G	2d	2g
.	[4e	4r
=13	=13	=13
2c	4e]	2a
.	2c	.
4e	.	4cc
=14	=14	=14
4f	4B-	4dd
2c	4A	4.ee
.	4c	.
.	.	8dd
=15	=15	=15
8f	4B-	4dd
16e	.	.
16f	.	.
8g	4G	8b
4e	.	8cc
.	4c	4ee
8c	.	.
=16	=16	=16
4f	8B-	8dd
.	8A	4cc
8a	8F	.
8g	4G	8b
8e	.	8g
8f	8F	8a
=17	=17	=17
8g	4c	4g
8.e	.	.
.	[4g	8r
16c	.	.
4c	.	8.e
.	16g]	.
.	16e	16c
8Bnx	8f	8d
=18	=18	=18
2c	8a	4c
.	4g	.
.	.	4r
.	8e	.
4G	8e	4b
.	16d	.
.	16e	.
=19	=19	=19
2F	2f	2cc
[4A	4e	4a
=20	=20	=20
4A]	4c	2f
2B-	2d	.
.	.	[4g
=21	=21	=21
2c	4e	4g]
.	2c	4a
[4e-	.	4g
=22	=22	=22
4e-]	2g	4.cc
2d	.	.
.	.	16b
.	.	16cc
.	4f	8b
.	.	8a
=23	=23	=23
2.c	4g	2.cc
.	8e	.
.	4e	.
.	8c	.
=24	=24	=24
2f	2B-	2dd
4d	4B-	4b-x
=25	=25	=25
2c	2F	4.a
.	.	4cc
4F	4f	.
.	.	[8dd
=26	=26	=26
2.F	2.f	8dd]
.	.	8cc
.	.	[2a
=27	=27	=27
2.c	2F	2a]
.	4E-	[4g
=28	=28	=28
4B-	4G	4g]
4c	2F	2a
[4F	.	.
=29	=29	=29
4F]	4A	4f
4G	4B-	2e
[4A	[4c	.
=30	=30	=30
4A]	4c]	2f
2B-	2d	.
.	.	[4g
=31	=31	=31
2c	4c	4g]
.	2F	2a
4A	.	.
=32	=32	=32
4B-	4G	4g
4A	2A	2f
[4F	.	.
=33	=33	=33
4F]	2.F	4d
4c	.	4c
4d	.	4f
=34	=34	=34
2c	4r	4g
.	[2c	4.a
4A	.	.
.	.	8f
=35	=35	=35
4F	2c]	4.f
2G	.	.
.	.	16e
.	.	16f
.	4B-	8e
.	.	8d
=36	=36	=36
[2.F	2c	2f
.	4d	4r
=37	=37	=37
2.F]	4.f	2.r
.	16e	.
.	16f	.
.	8e	.
.	8d	.
=38	=38	=38
2.f	2.d	2.a
=39	=39	=39
*>B	*>B	*>B
!! Section 'B'; (O) mensuration.
4.a	2.r	4.cc
8a	.	8cc
4g	.	4dd
=40	=40	=40
4.g	2.r	4ee
.	.	8dd
8e	.	[4.cc
8f	.	.
8e	.	.
=41	=41	=41
4.c	2.r	8cc]
.	.	8a
.	.	4g
8.g	.	.
.	.	4dd
16f	.	.
8g	.	.
=42	=42	=42
8a	2.r	8cc
4g	.	8.b
.	.	16g
8d	.	8b
4f#x	.	4a
=43	=43	=43
2.g	2.r	2g
.	.	4r
=44	=44	=44
2a	2.r	2cc
4g	.	4b
=45	=45	=45
4g	2.r	4g
8f	.	8a
8f	.	8a
4f	.	4a
=46	=46	=46
4g	2.r	8r
.	.	4g
8e	.	.
4c	.	8a
.	.	4cc
8A	.	.
=47	=47	=47
4G	2.r	8b
.	.	4dd
2F	.	.
.	.	8cc
.	.	4a
=48	=48	=48
*>C	*>C	*>C
!! Section 'C'; (O) mensuration.
2.f	[2.F	[2.a
=49	=49	=49
4c	2F]	2a]
2d	.	.
.	4B-	4f
=50	=50	=50
2.c	4c	[2.e
.	2A	.
=51	=51	=51
2G	2r	2.e]
[4A	4c	.
=52	=52	=52
4A]	2.f	2a
2F	.	.
.	.	4cc
=53	=53	=53
2.G	2d	4b
.	.	2dd
.	[4g	.
=54	=54	=54
2c	4g]	2ee
.	2c	.
4e	.	4cc
=55	=55	=55
4f	4F	4a
2g	2B-	4g
.	.	4r
=56	=56	=56
4a	4F	4cc
4g	4r	8b
.	.	4g
4e	4c	.
.	.	[8cc
=57	=57	=57
8g	8d	16cc]
.	.	16b
4f	8.a	8cc
.	.	8dd
.	16g	.
8e	8g	4cc
4d	8r	.
.	8f	8b
=58	=58	=58
2.c	2g	2cc
.	4a	4r
=59	=59	=59
2F	2a	2cc
4F	4f	4a
=60	=60	=60
4G	4d	4b-
8F	4f	8a
8A	.	4f
8B-	8d	.
[8c	8c	[8e
=61	=61	=61
8c]	8A	16e]
.	.	16c
8B-	8G	8d
8A	8F	8f
8F	4c	4f
4G	.	.
.	8B-	8e
=62	=62	=62
2.F	2.c	2f
.	.	4f
=63	=63	=63
2f	2F	2a
4e	[4c	4g
=64	=64	=64
4g	4c]	4e
4f	2F	2d
[4a	.	.
=65	=65	=65
4a]	4A	2c
4g	2c	.
4e	.	4g
=66	=66	=66
2d	4d	4f
.	4f	2a
[4c	4e	.
=67	=67	=67
4c]	4c	4cc
4G	2d	8b
.	.	4dd
4F	.	.
.	.	8cc
=68	=68	=68
2c	4e	4a
.	2c	2g
[4e	.	.
=69	=69	=69
4e]	2g	2cc
2d	.	.
.	4f	8b
.	.	8a
=70	=70	=70
2.c	8g	2cc
.	16f	.
.	16g	.
.	8a	.
.	8g	.
.	4e	4r
=71	=71	=71
4.F	4f	4.a
.	4c	.
8F	.	8a
8F	8d	8a
8F	8d	8a
=72	=72	=72
2c	4c	2a
.	4F	.
8d	8B-	8f
8d	8B-	8f
=73	=73	=73
4c	4c	4e
4f	4B-	4d
8e	8c	8c
[8d	[8F	[8f
=74	=74	=74
8d]	8F]	8f]
4c	8r	8g
.	4c	8e
8A	.	4a
4B-	4d	.
.	.	8g
=75	=75	=75
2A	4e	2a
.	4f	.
4r	4g	4b
=76	=76	=76
2.F	2a	2cc
.	4f	4a
=77	=77	=77
2B-	2d	4g
.	.	8f
.	.	4d
4d	4B-	.
.	.	8f
=78	=78	=78
4c	8r	8g
.	4c	4a
8A	.	.
4B-	4d	8g
.	.	4f
8d	8f	.
=79	=79	=79
4c	8g	8e
.	8.e	4g
8B-	.	.
.	16d	.
4A	8c	8f
.	4f	4a
8F	.	.
=80	=80	=80
8G	8d	8b
8A	4c	4cc
4F	.	.
.	4f	4dd
4f	.	.
.	8a	[8cc
=81	=81	=81
8e	4g	8cc]
4d	.	8b
.	8f	4a
8.c	4e	.
.	.	8g
16A	.	.
8B-	[8d	[8f
=82	=82	=82
8d	8d]	8f]
4c	8g	8.e
.	8e	.
.	.	16c
8A	4c	8f
4G	.	8g
.	8B-	8e
=83	=83	=83
[2.F	[2.c	[2.f
=84	=84	=84
2.F]	2.c]	2.f]
==	==	==
*-	*-	*-
!!!ENC: Mark Laxton
!!!EDD: Mark Laxton
!!!YEC: Mark Laxton, 1987
!!!EMD: Reference records added by D. Huron, 2001
!!!EEV: 1.1
